X:222 
T:Over the Waterfall [polka] 
F:file ID misc/222over_wf
Z:bill@capeirish.com
Q:120
M:2/4
R:polka
L:1/16
K:D
de|f2a2 gfe2|d2B2 A2de|f2a2 gfe2|d6 de|
f2a2 gfe2|d2B2 A3B|c3c B2A2|G6:|
FG|A2AA B2 B2|ABAG F2FG|A2d2 cdec|d6 FG|
A2GA B2AB|ABAG F2FG|A2G2 F2E2|D6:|

